!!!OTL: Chuhai
!!!ARE: Asia, China,ˇGuangdong Haifeng
!! II, 354, 2)
!!!SCT: C2096
!!!YEM: Copyright 1995, estate of Helmut Schaffrath.
**kern
*ICvox
*Ivox
*M2/4
*k[f#]
*G:
{8e
8g
4d
=1
8e
8d
4g
=2
8g
8a
[4b
=3
2b]}
=4
{8a
8b
8g
8a
=5
8e
8d
8e
8g
=6
8a
8b
8b
8a
=7
2g}
=8
{4a
4e
=9
2d
=10
8e
8g
8g
8e
=11
[2d
=12
2d]}
==
!!!AGN: Xiaodiao, YÅge
!!!AMT: simple duple
!!!AIN: vox
!!!EED: Helmut Schaffrath
!!!EEV: 1.0
*-
!!!ONB: Tied note syntax fixed by Craig Sapp, 2004/05/03/
